X: 42369
T: Welcome To Your Feet Again
R: strathspey
M: 4/4
K: Cmajor
[K:B]
B,>D F>G c<DC2|B,>D F>G B>F G<F|E>c D>B c>D C>D|B,>D F>G B>F G<B
B,>D F>G c<DC2|B,>D F>G B>F G<F|E>c D>B c>D C>D|B,>D F>G B>F G<g||
f>B B>g f>d c>d|f<B f>g f>d c<d|e>f g/f/e/d/ c>B c<d|B>F G>F B>F G<g|
f>B B>g f>d c>d|f<B f>g f>d c<d|e>f g/f/e/d/ c>B c<d|B>F G>F B>F G<B||

